X:13209
T:Planxty Fanny Power
M:3/4
L:1/8
C:Turlough Carolan
R:planxty
K:G
D2|G4D2|G3 AB2|c4B2|A4G2|F4E2|D3 ED2|F4G2|A4c2|
B3 AG2|B3 cd2|e4A2|A4G2|F3 ED2|D2G2F2|G6|G4:|
Bc|d2B cd2|d2B cd2|G3 AG2|G2B2d2|e2c de2|e2c de2|A3 BA2|A2B2c2|
B3 cd2|e2f2g2|f2g2a2|d4c2|B3 AG2|B4A2|G6|G4:|
